X:749
T:Kid on the Mountain, The
C:Joe Buchanan's Scottish Tome - Page 260.1
I:260 1
Z:Carl Allison
R:Slip Jig
L:1/8
M:9/8
K:G
EFE FED G2 F | EFE cBA BGE | EFE FED G2 (G/A/) | BAG FAG FED :| 
BGB AFA G2 D | GAB dfe dBA | BGB AFA G2 A | BAG FAG FED :| 
gfe efe e2 (e/f/) | gfg efg afd | gfe efe e2 (g/a/) | bag fag fed :| 
eBB e2 f g2 f | eBB efg afd | eBB e2 f  (g/a/) | bag fag fed :| 
eBe dBA G2 A | Bee dBA BGE | eBe dBA G2 A | BAG FAG FED :| 
B,EE eBG E2 E | B,EE EFG AFD | B,EE eBG E2 (G/A/) | BAG FAG FED :| 

